X:1
T:A Catch on the Viol
T:A Catch on the Viol
T:Mr. H. Purcell
C:Mr. H. Purcell
%%score [ 1 2 3 ]
L:1/8
Q:1/4=60
M:2/2
K:A
V:1 treble nm="1"
V:2 treble nm="2"
V:3 treble nm="3"
V:1
 z E | A2 A, A G3/2 F/ E A | F2 D B, E (F/G/) A3/2 B/ | G2 A c B G A F | G B c A (Bc/d/c) d/ e/ | %5
w: Of|all, all, the In- stru- ments, all,|all, all the In- stru- * ments that|are none, none, none, none, none, none,|none, none, none, none, none _ _ _ with the|
 (f/e/) (d/c/) (d/c/) (B/A/) A4 |] %6
w: Vi- * ol _ can _ com- * pare|
V:2
 x2 | c2 (A/B/) (c/d/) e2 c e | A2 d f B (A/G/) F3/2 E/ | E A/ B/ c E D B C A | %4
w: |Mark, Mark, _ Mark, _ Mark, how the|Strings, how the Strings Their _ or- der|keep, with a whet, whet, whet, whet, whet, whet,|
 B, G A, F G, E A, B,/ C/ | (D/E/F) (E/F/G) (A/A,/C/E/ A2) |] %6
w: whet, whet, whet, whet, whet, whet, whet and a|sweep, _ _ sweep, _ _ sweep, _ _ _ _|
V:3
 x2 | z2 c/ B/ A B2 e c | d2 f B G e (d/c/) (B/A/) | e2 z e/ e/ e/ ^d/ e/ d/ e/ d/ e/ d/ | %4
w: |but a- bove all, all, all,|all, all, all, all, this still _ a- *|bounds with a zin- gle, zin- gle, zin- gle, zin- gle,|
 e/ ^d/ e/ d/ e/ d/ c/ d/ e2 z c/ B/ |"_Transponert ned en liten ters" A2 E2 A,2 z2 |] %6
w: zin- gle, zin- gle, zin- gle, zin- gle, zing and a|zit zan zounds.|

